Resources/app/storefront/src/assets/icon-pack/cinema/ic-heart-fill.svg

<?xml version="1.0" encoding="UTF-8"?>
<svg width="25px" height="20px" viewBox="0 0 25 20" version="1.1" xmlns="http://www.w3.org/2000/svg" xmlns:xlink="http://www.w3.org/1999/xlink">
    <title>3E9F31DF-3231-496C-B42A-86935019628F@1x</title>
    <defs>
        <path d="M19.0557519,2.91759313 L19.2148521,2.92007246 C19.6368796,2.94576987 20.0377935,3.12293437 20.3408953,3.4222941 L20.3408953,3.4222941 L20.424606,3.50497139 L23.6406787,8.66403306 L23.7299319,8.77720991 C24.2262091,9.45925413 24.1642008,10.4187483 23.5440046,11.0315557 L23.5440046,11.0315557 L17.3986944,17.0976329 C16.1263344,18.3289628 14.5377882,19.7206736 12.6316206,21.2748978 C12.2400142,21.5942003 11.6794277,21.5677495 11.3195793,21.2331481 C11.3194856,21.2323724 11.3191642,21.232083 11.3188434,21.2317843 L9.92132486,19.9248227 C8.42465452,18.5183097 7.11505297,17.2639917 5.99227526,16.1615949 L0.796831626,11.0314807 C0.176704423,10.4186646 0.114723055,9.45921259 0.610987909,8.77719369 L0.699497089,8.6643026 L3.91630829,3.50496287 L4.00001904,3.42228558 C4.30312077,3.12292585 4.70403474,2.94576135 5.12606221,2.92006394 L5.28516241,2.91758461 L8.5848994,3.01536493 C8.97280508,3.02685965 9.3445885,3.16620222 9.64272342,3.40950032 L9.76581872,3.52006591 L9.88692048,3.66467476 L12.0391052,6.05958461 L14.4847051,3.62245723 L14.5750956,3.52007443 L14.6981909,3.40950884 C14.9963258,3.16621074 15.3681092,3.02686817 15.7560149,3.01537345 L15.7560149,3.01537345 L19.0557519,2.91759313 Z" id="path-1"></path>
    </defs>
    <g id="Lizenzen-&amp;-Assets-✅" stroke="none" stroke-width="1" fill="none" fill-rule="evenodd">
        <g id="Icons" transform="translate(-483.000000, -653.000000)">
            <g id="Group" transform="translate(483.000000, 651.000000)">
                <mask id="mask-2" fill="white">
                    <use xlink:href="#path-1"></use>
                </mask>
                <use id="Mask" fill="#071C31" fill-rule="nonzero" xlink:href="#path-1"></use>
                <g mask="url(#mask-2)">
                    <g transform="translate(0.000000, 1.000000)">
                        <rect id="Rectangle" fill="#071C31" x="0" y="0" width="24" height="24"></rect>
                    </g>
                </g>
            </g>
        </g>
    </g>
</svg>

<?xml version="1.0" encoding="UTF-8"?><svg width="25" height="20" xmlns="http://www.w3.org/2000/svg" xmlns:xlink="http://www.w3.org/1999/xlink"><defs><path d="M19.06 2.92h.15c.43.03.83.2 1.13.5l.08.08 3.22 5.16.09.12c.5.68.43 1.64-.19 2.25L17.4 17.1a76.1 76.1 0 0 1-4.77 4.17 1 1 0 0 1-1.31-.04l-1.4-1.3c-1.5-1.41-2.8-2.67-3.93-3.77L.8 11.03a1.73 1.73 0 0 1-.18-2.25l.09-.12L3.92 3.5 4 3.42c.3-.3.7-.47 1.13-.5h.16l3.3.1c.38 0 .75.15 1.05.39l.13.11.12.14 2.15 2.4 2.44-2.44.1-.1.12-.11c.3-.24.67-.38 1.06-.4l3.3-.1Z" id="a"/></defs><g transform="translate(0 -2)" fill="none" fill-rule="evenodd"><mask id="b" fill="#fff"><use xlink:href="#a"/></mask><use fill="#071C31" fill-rule="nonzero" xlink:href="#a"/><g mask="url(#b)"><path fill="#071C31" d="M0 1h24v24H0z"/></g></g></svg>
